X: 1500
T: Nikrîz Longa
C: Haydar Tatlıyay
O: Turkey
F: http://compmusic.upf.edu/node/140
N: nikriz--longa--nimsofyan----haydar_tatliyay
N: makam= nikriz
N: form= longa
N: usul= nimsofyan = 2/4
M: 2/4
L: 1/16
K: C _7/8B ^3/4f ^c 
Q: 1/4=78
%%MIDI tuningsystem comma53
D2G2 _B2d2  | c2_B2 A2G2  | g^fed c_BA_7/8B  | \
w:   |   |   | 
GA_Bc d4  | 
w:   | 
D2G2 _B2d2  | c2_B2 A2G2  | g^fed c_BA_7/8B  | \
w:   |   |   | 
G2D2 G4  | BABG ^FGAG  | 
w:   |   | 
dcdB ABcB  | ^fefd cdec  | d_1/4B=c^A B4  | 
w:   |   |   | 
BABG ^FGAG  | dcdB ABcB  | ^fefd cdec  | 
w:   |   |   | 
dBcA G4  | D2B2 G2B2  | D2B2 G2B2  | D2B2 G2B2  | \
w:   |   |   |   | 
A2^F2 G4  | g8  | 
w:   |   | 
g8  | g8  | g8  | ag^fg agfg  | ag^fg e4  | g^f^ef gfef  | 
w:   |   |   |   |   |   | 
g^f^ef d4  | ag^fg agfg  | ag^fg e4  | g^f^ef gfef  | 
w:   |   |   |   | 
g^f^ef d4  | cde4e2  | e2^f2 e2d2  | cde4e2  | \
w:   |   |   |   | 
e2a2 e4  | cde4e2  | 
w:   |   | 
e2^f2 e2d2  | cde4e2  | e2a2 e4  | ^fede dcde  | \
w:   |   |   |   | 
^fede dcde  | 
w:   | 
^fede dcBA  | B2c2 B4  | ^fede dcde  | ^fede dcde  | 
w:   |   |   |   | 
^fede dcBA  | G2D2 G4  | g8  | g8  | bc'_a_b ag^f2  | \
w:   |   |   |   |   | 
bc'_a_b ag^f2  | 
w:   | 
bc'_a_b ag^f2  | bc'_a_b ag^f2  | bc'_a_b ag^f2  | 
w:   |   |   | 
_ede^f g4  | bc'_a_b ag^f2  | bc'_a_b ag^f2  | \
w:   |   |   | 
bc'_a_b ag^f2  | 
w:   | 
bc'_a_b ag^f2  | bc'_a_b ag^f2  | _ede^f g4  | \
w:   |   |   | 
c'_a_bg ^fg_ef  | 
w:   | 
d_ecd BA_A2  | Gc_B_A G^F_ED  | _EDE^F G4  | \
w:   |   |   | 
D2G2 _B2d2  | 
w:   | 
c2_B2 A2G2  | g^fed c_BA_7/8B  | GA_Bc d4  | \
w:   |   |   | 
D2G2 _B2d2  | 
w:   | 
c2_B2 A2G2  | g^fed c_BA_7/8B  | G2D2 G4  | \
w:   |   |   | 
BABG ^FGAG  | 
w:   | 
dcdB ABcB  | ^fefd cdec  | d_1/4B=c^A B4  | 
w:   |   |   | 
BABG ^FGAG  | dcdB ABcB  | ^fefd cdec  | 
w:   |   |   | 
dBcA G4  | |


